; generated by PrusaSlicer 2.7.1+win64 on 2024-02-27 at 21:39:14 UTC


;
;
; 

; external perimeters extrusion width = 0.45mm
; perimeters extrusion width = 0.45mm
; infill extrusion width = 0.45mm
; solid infill extrusion width = 0.45mm
; top infill extrusion width = 0.40mm
; first layer extrusion width = 0.42mm

; external perimeters extrusion width = 0.45mm
; perimeters extrusion width = 0.45mm
; infill extrusion width = 0.45mm
; solid infill extrusion width = 0.45mm
; top infill extrusion width = 0.40mm
; first layer extrusion width = 0.42mm

; external perimeters extrusion width = 0.45mm
; perimeters extrusion width = 0.45mm
; infill extrusion width = 0.45mm
; solid infill extrusion width = 0.45mm
; top infill extrusion width = 0.40mm
; first layer extrusion width = 0.42mm

; external perimeters extrusion width = 0.45mm
; perimeters extrusion width = 0.45mm
; infill extrusion width = 0.45mm
; solid infill extrusion width = 0.45mm
; top infill extrusion width = 0.40mm
; first layer extrusion width = 0.42mm

; external perimeters extrusion width = 0.45mm
; perimeters extrusion width = 0.45mm
; infill extrusion width = 0.45mm
; solid infill extrusion width = 0.45mm
; top infill extrusion width = 0.40mm
; first layer extrusion width = 0.42mm

M73 P0 R17
M73 Q0 S17
M201 X1000 Y1000 Z200 E5000 ; sets maximum accelerations, mm/sec^2
M203 X200 Y200 Z12 E120 ; sets maximum feedrates, mm / sec
M204 S1250 T1250 ; sets acceleration (S) and retract acceleration (R), mm/sec^2
M205 X8.00 Y8.00 Z0.40 E4.50 ; sets the jerk limits, mm/sec
M205 S0 T0 ; sets the minimum extruding and travel feed rate, mm/sec

; printing object Material Selector - Part 5.stl id:1 copy 0
; stop printing object Material Selector - Part 5.stl id:1 copy 0
; printing object Material Selector - Part 4.stl id:0 copy 0
; stop printing object Material Selector - Part 4.stl id:0 copy 0
; printing object Material Selector - Part 6.stl id:2 copy 0
; stop printing object Material Selector - Part 6.stl id:2 copy 0
; printing object Material Selector - Part 4.stl id:3 copy 0
; stop printing object Material Selector - Part 4.stl id:3 copy 0
; printing object Material Selector - Part 6.stl id:4 copy 0
; stop printing object Material Selector - Part 6.stl id:4 copy 0

;TYPE:Custom
M862.3 P "MK3S" ; printer model check
M862.1 P0.4 ; nozzle diameter check
M115 U3.13.2 ; tell printer latest fw version
G90 ; use absolute coordinates
M83 ; extruder relative mode
M104 S215 ; set extruder temp
M140 S65 ; set bed temp
M190 S65 ; wait for bed temp
M109 S215 ; wait for extruder temp
G28 W ; home all without mesh bed level
G80 X113.533 Y94.9636 W23.1349 H28.2988 ; mesh bed levelling

G1 Z0.2 F720
G1 Y-3 F1000 ; go outside print area
G92 E0
G1 X60 E9 F1000 ; intro line
G1 X100 E12.5 F1000 ; intro line

G92 E0
M221 S95

; Don't change E values below. Excessive value can damage the printer.
M907 E430 ; set extruder motor current
G21 ; set units to millimeters
G90 ; use absolute coordinates
M83 ; use relative distances for extrusion
M900 K0.05 ; Filament gcode LA 1.5
M900 K30 ; Filament gcode LA 1.0
M107
;LAYER_CHANGE
;Z:0.2
;HEIGHT:0.2
;BEFORE_LAYER_CHANGE
G92 E0.0
;0.2


G1 E-.8 F2100
G1 Z.2 F720
;AFTER_LAYER_CHANGE
;0.2
G1 X114.671 Y96.198 F10800
G1 Z.2 F720
G1 E.8 F2100
M204 S800
;TYPE:Skirt/Brim
;WIDTH:0.42
G1 F1200
G1 X115.854 Y95.325 E.0461
G1 X117.061 Y95.152 E.03823
G1 X131.479 Y96.316 E.45354
G1 X132.486 Y96.587 E.0327
G1 X133.974 Y98.032 E.06503
G1 X134.262 Y98.882 E.02814
G1 X136.433 Y111.173 E.39134
G1 X136.466 Y112.285 E.03488
G1 X136.326 Y113.143 E.02726
G1 X135.939 Y114.188 E.03494
G1 X135.336 Y115.125 E.03494
G1 X129.876 Y121.312 E.25873
G1 X129.232 Y121.935 E.02809
G1 X128.3 Y122.537 E.03479
G1 X127.26 Y122.922 E.03477
G1 X125.862 Y123.074 E.04409
G1 X124.763 Y122.92 E.0348
G1 X123.724 Y122.533 E.03476
G1 X122.793 Y121.93 E.03478
G1 X122.015 Y121.14 E.03476
G1 X121.564 Y120.467 E.0254
G1 X114.127 Y104.912 E.54059
G1 X113.847 Y104.036 E.02884
M73 P1 R17
M73 Q1 S17
G1 X113.722 Y103 E.03272
G1 X113.942 Y97.956 E.1583
G1 X114.525 Y96.384 E.05257
G1 X114.634 Y96.245 E.00554
M204 S1000
G1 X114.931 Y96.478 F10800
M204 S800
G1 F1200
G1 X114.968 Y96.431 E.00188
G1 X116.082 Y95.643 E.04278
G1 X117.03 Y95.527 E.02995
G1 X131.449 Y96.692 E.45357
G1 X132.344 Y96.937 E.02909
G1 X133.628 Y98.184 E.05612
G1 X133.89 Y98.948 E.02532
G1 X136.063 Y111.246 E.39157
G1 X136.089 Y112.279 E.0324
G1 X135.963 Y113.042 E.02425
G1 X135.606 Y114.011 E.03238
G1 X135.049 Y114.88 E.03236
G1 X129.181 Y121.482 E.27695
G1 X128.348 Y122.083 E.03221
G1 X127.159 Y122.559 E.04016
G1 X125.883 Y122.697 E.04024
G1 X124.865 Y122.557 E.03222
G1 X123.902 Y122.2 E.0322
G1 X123.039 Y121.644 E.03219
G1 X122.316 Y120.914 E.03221
G1 X121.888 Y120.274 E.02414
G1 X114.47 Y104.756 E.53929
G1 X114.216 Y103.958 E.02626
G1 X114.099 Y103.003 E.03017
G1 X114.319 Y97.974 E.15783
G1 X114.822 Y96.617 E.04538
G1 X114.894 Y96.525 E.00366
M204 S1000
; printing object Material Selector - Part 5.stl id:1 copy 0
;WIPE_START
G1 F8640
G1 X114.931 Y96.478 E-.01381
G1 X114.968 Y96.431 E-.01381
G1 X116.082 Y95.643 E-.31507
G1 X117.03 Y95.527 E-.22053
G1 X118.052 Y95.61 E-.23678
;WIPE_END
G1 Z.6 F720
G1 X129.649 Y100.97 F10800
G1 Z.2 F720
G1 E.8 F2100
M204 S800
;TYPE:External perimeter
;WIDTH:0.419999
G1 F1200
G1 X129.58 Y100.88 E.00356
G1 X129.613 Y99.365 E.04751
G1 X129.726 Y99.293 E.0042
G1 X131.259 Y99.342 E.04809
G1 X131.29 Y99.443 E.00331
G1 X131.256 Y100.935 E.04679
G1 X131.166 Y101.004 E.00356
G1 X129.709 Y100.971 E.04569
M204 S1000
G1 X129.962 Y100.605 F10800
M204 S800
;TYPE:Perimeter
G1 F1200
G1 X129.979 Y99.675 E.02916
G1 X130.909 Y99.692 E.02916
G1 X130.892 Y100.622 E.02916
G1 X130.022 Y100.606 E.02728
M204 S1000
; stop printing object Material Selector - Part 5.stl id:1 copy 0
; printing object Material Selector - Part 4.stl id:0 copy 0
;WIPE_START
G1 F8640
G1 X129.962 Y100.605 E-.01386
G1 X129.979 Y99.675 E-.21478
G1 X130.909 Y99.692 E-.21478
G1 X130.892 Y100.622 E-.21478
G1 X130.278 Y100.611 E-.1418
;WIPE_END
G1 Z.6 F720
G1 X120.443 Y102.152 F10800
G1 Z.2 F720
G1 E.8 F2100
M204 S800
;TYPE:External perimeter
;WIDTH:0.583542
G1 F1200
G1 X120.584 Y102.5 E.01688
M204 S1000
;WIPE_START
G1 F8640
G1 X120.443 Y102.152 E-.0867
;WIPE_END
G1 E-.7133 F2100
G1 Z.6 F720
G1 X119.617 Y104.468 F10800
G1 Z.2 F720
G1 E.8 F2100
M204 S800
;WIDTH:0.542466
G1 F1200
G1 X119.667 Y104.386 E.00399
;WIDTH:0.498778
G1 X119.784 Y104.164 E.00951
;WIDTH:0.462241
G1 X119.9 Y103.943 E.0087
;WIDTH:0.444474
G1 X120.449 Y102.866 E.04036
;WIDTH:0.466023
G1 X120.494 Y102.744 E.00457
;WIDTH:0.513172
G1 X120.539 Y102.622 E.00508
;WIDTH:0.56032
G1 X120.584 Y102.5 E.00559
G1 X120.632 Y102.604 E.00493
;WIDTH:0.523016
G1 X120.651 Y102.795 E.00766
;WIDTH:0.488302
G1 X120.67 Y102.986 E.00711
;WIDTH:0.453588
G1 X120.688 Y103.177 E.00655
;WIDTH:0.444474
G1 X120.539 Y103.598 E.01491
G1 X120.137 Y104.268 E.02609
;WIDTH:0.459014
G1 X119.962 Y104.381 E.00721
;WIDTH:0.498778
G1 X119.787 Y104.495 E.00792
;WIDTH:0.542466
G1 X119.677 Y104.523 E.00471
;WIDTH:0.586154
G1 X119.567 Y104.551 E.00513
G1 X119.586 Y104.52 E.00164
M204 S1000
;WIPE_START
G1 F8640
G1 X119.617 Y104.468 E-.01398
G1 X119.667 Y104.386 E-.02218
;WIPE_END
G1 E-.76384 F2100
G1 Z.6 F720
G1 X118.172 Y101.312 F10800
G1 Z.2 F720
G1 E.8 F2100
M204 S800
;WIDTH:0.419999
G1 F1200
G1 X118.02 Y101.416 E.00577
G1 X117.808 Y101.791 E.01351
;WIDTH:0.436671
G1 X117.547 Y102.233 E.01681
G1 X117.31 Y102.739 E.01829
;WIDTH:0.455412
G1 X117.248 Y102.87 E.00497
;WIDTH:0.493203
G1 X117.186 Y103.001 E.00543
;WIDTH:0.530994
G1 X117.124 Y103.132 E.00588
;WIDTH:0.568784
G1 X117.061 Y103.263 E.00636
G1 X117.031 Y103.148 E.0052
;WIDTH:0.530994
G1 X117 Y103.034 E.00479
;WIDTH:0.493203
G1 X116.97 Y102.92 E.00441
;WIDTH:0.455412
G1 X116.94 Y102.805 E.00408
;WIDTH:0.417621
G1 X116.968 Y102.586 E.00688
;WIDTH:0.437283
G1 X117.216 Y102.017 E.02035
G1 X117.495 Y101.582 E.01695
;WIDTH:0.419999
G1 X117.498 Y101.317 E.00831
G1 X117.376 Y100.463 E.02705
G1 X117.092 Y99.045 E.04534
G1 X116.955 Y98.247 E.02539
G1 X118.422 Y100.473 E.08359
G1 X118.836 Y100.985 E.02064
;WIDTH:0.422878
G1 X119.21 Y101.081 E.0122
;WIDTH:0.435494
G1 X119.71 Y101.306 E.0179
G1 X120.253 Y101.679 E.0215
;WIDTH:0.455185
G1 X120.3 Y101.797 E.00435
;WIDTH:0.497971
G1 X120.348 Y101.916 E.00486
;WIDTH:0.540757
G1 X120.396 Y102.034 E.00527
;WIDTH:0.583542
G1 X120.443 Y102.152 E.00571
G1 X120.337 Y102.105 E.00521
;WIDTH:0.540757
G1 X120.23 Y102.057 E.00485
;WIDTH:0.497971
G1 X120.123 Y102.009 E.00444
;WIDTH:0.455185
G1 X120.017 Y101.961 E.00399
;WIDTH:0.435494
G1 X119.512 Y101.645 E.01945
G1 X119.059 Y101.43 E.01637
;WIDTH:0.422878
G1 X118.466 Y101.235 E.01972
;WIDTH:0.419999
G1 X118.23 Y101.297 E.00765
M204 S1000
G1 X117.98 Y101.012 F10800
M204 S800
;TYPE:Perimeter
;WIDTH:0.403429
G1 F1200
G1 X117.841 Y101.112 E.00513
G1 X117.663 Y100.004 E.03364
G1 X117.895 Y100.378 E.01319
G1 X118.27 Y100.89 E.01902
G1 X118.043 Y100.967 E.00719
G1 X118.028 Y100.977 E.00054
M204 S1000
;WIPE_START
G1 F8640
G1 X117.98 Y101.012 E-.01372
G1 X117.841 Y101.112 E-.03954
G1 X117.663 Y100.004 E-.25912
G1 X117.895 Y100.378 E-.10162
G1 X118.27 Y100.89 E-.14654
G1 X118.043 Y100.967 E-.05535
G1 X118.028 Y100.977 E-.00416
;WIPE_END
G1 E-.17995 F2100
G1 Z.6 F720
G1 X117.215 Y103.691 F10800
G1 Z.2 F720
G1 E.8 F2100
M204 S800
;TYPE:External perimeter
;WIDTH:0.574666
G1 F1200
G1 X117.064 Y103.334 E.01714
;WIDTH:0.568784
G1 X117.061 Y103.263 E.00311
M204 S1000
;WIPE_START
G1 F8640
G1 X117.064 Y103.334 E-.01641
;WIPE_END
G1 E-.78359 F2100
G1 Z.6 F720
G1 X118.933 Y104.611 F10800
G1 Z.2 F720
G1 E.8 F2100
M204 S800
;WIDTH:0.571033
G1 F1200
G1 X119.001 Y104.649 E.00342
;WIDTH:0.615376
G1 X119.069 Y104.686 E.00368
G1 X118.986 Y104.712 E.00414
;WIDTH:0.571033
G1 X118.903 Y104.738 E.00382
;WIDTH:0.52669
G1 X118.82 Y104.764 E.0035
;WIDTH:0.482346
G1 X118.709 Y104.78 E.0041
;WIDTH:0.441771
G1 X118.598 Y104.795 E.00371
;WIDTH:0.43585
G1 X117.935 Y104.529 E.02334
G1 X117.417 Y104.176 E.02048
;WIDTH:0.439582
G1 X117.352 Y104.075 E.00396
;WIDTH:0.466133
G1 X117.288 Y103.975 E.00418
;WIDTH:0.502311
G1 X117.263 Y103.881 E.00372
;WIDTH:0.538489
G1 X117.239 Y103.786 E.00404
;WIDTH:0.574666
G1 X117.215 Y103.691 E.00433
G1 X117.319 Y103.737 E.00503
;WIDTH:0.534257
G1 X117.422 Y103.783 E.00461
;WIDTH:0.493848
G1 X117.526 Y103.829 E.00426
;WIDTH:0.453439
G1 X117.63 Y103.875 E.00388
;WIDTH:0.438941
G1 X118.211 Y104.231 E.02244
G1 X118.733 Y104.464 E.01882
;WIDTH:0.441771
G1 X118.799 Y104.519 E.00285
;WIDTH:0.482346
G1 X118.864 Y104.574 E.00311
;WIDTH:0.52669
G1 X118.88 Y104.582 E.00072
M204 S1000
G1 X119.567 Y104.551 F10800
M204 S800
;WIDTH:0.586154
G1 F1200
G1 X119.269 Y104.672 E.01453
G1 X119.169 Y104.679 E.00453
;WIDTH:0.615376
G1 X119.069 Y104.686 E.00477
M204 S1000
; stop printing object Material Selector - Part 4.stl id:0 copy 0
; printing object Material Selector - Part 6.stl id:2 copy 0
;WIPE_START
G1 F8640
G1 X119.169 Y104.679 E-.02315
;WIPE_END
G1 E-.77685 F2100
G1 Z.6 F720
G1 X122.94 Y106.743 F10800
G1 Z.2 F720
G1 E.8 F2100
M204 S800
;WIDTH:0.419999
G1 F1200
G1 X123.319 Y106.681 E.01204
G1 X123.781 Y106.707 E.01451
G1 X124.226 Y106.831 E.01448
G1 X124.634 Y107.048 E.01449
G1 X124.987 Y107.348 E.01453
G1 X125.266 Y107.717 E.0145
G1 X125.46 Y108.137 E.01451
G1 X125.509 Y108.363 E.00725
G1 X125.558 Y108.82 E.01441
G1 X125.558 Y109.051 E.00724
G1 X125.458 Y109.502 E.01448
G1 X125.263 Y109.922 E.01452
G1 X124.983 Y110.29 E.0145
G1 X124.63 Y110.589 E.0145
G1 X124.221 Y110.805 E.0145
G1 X123.775 Y110.928 E.01451
G1 X123.314 Y110.953 E.01448
G1 X122.867 Y110.879 E.01421
G1 X122.428 Y110.705 E.01481
G1 X122.045 Y110.446 E.0145
G1 X121.728 Y110.109 E.01451
G1 X121.49 Y109.713 E.01449
G1 X121.343 Y109.274 E.01452
G1 X121.293 Y108.815 E.01448
G1 X121.344 Y108.355 E.01451
G1 X121.492 Y107.917 E.0145
G1 X121.731 Y107.521 E.0145
G1 X122.049 Y107.185 E.01451
G1 X122.432 Y106.926 E.0145
G1 X122.862 Y106.756 E.0145
G1 X122.88 Y106.753 E.00057
M204 S1000
G1 X123.025 Y107.125 F10800
M204 S800
;TYPE:Perimeter
G1 F1200
M73 Q2 S17
G1 X123.151 Y107.091 E.00409
G1 X123.529 Y107.071 E.01187
G1 X123.902 Y107.132 E.01185
G1 X124.253 Y107.273 E.01186
G1 X124.566 Y107.485 E.01185
G1 X124.826 Y107.76 E.01187
G1 X125.02 Y108.085 E.01187
G1 X125.141 Y108.443 E.01185
G1 X125.181 Y108.819 E.01186
G1 X125.14 Y109.195 E.01186
G1 X125.019 Y109.553 E.01185
G1 X124.823 Y109.877 E.01187
G1 X124.563 Y110.152 E.01187
G1 X124.25 Y110.363 E.01184
G1 X123.898 Y110.503 E.01188
G1 X123.525 Y110.564 E.01185
G1 X123.151 Y110.544 E.01174
G1 X122.796 Y110.446 E.01155
G1 X122.447 Y110.263 E.01236
M73 P2 R17
G1 X122.162 Y110.02 E.01174
G1 X121.932 Y109.718 E.0119
G1 X121.774 Y109.374 E.01187
G1 X121.693 Y109.004 E.01188
G1 X121.693 Y108.626 E.01185
G1 X121.775 Y108.257 E.01185
G1 X121.934 Y107.914 E.01185
G1 X122.164 Y107.613 E.01188
G1 X122.452 Y107.368 E.01186
G1 X122.786 Y107.191 E.01185
G1 X122.967 Y107.141 E.00589
M204 S1000
G1 X123.106 Y107.499 F10800
M204 S800
G1 F1200
G1 X123.359 Y107.439 E.00815
G1 X123.801 Y107.495 E.01397
G1 X124.208 Y107.676 E.01397
G1 X124.525 Y107.988 E.01395
G1 X124.74 Y108.378 E.01396
G1 X124.804 Y108.819 E.01397
G1 X124.804 Y108.968 E.00467
G1 X124.677 Y109.395 E.01397
G1 X124.433 Y109.767 E.01395
G1 X124.073 Y110.03 E.01398
G1 X123.654 Y110.179 E.01394
G1 X123.212 Y110.172 E.01386
G1 X122.783 Y110.035 E.01412
G1 X122.436 Y109.761 E.01386
G1 X122.179 Y109.395 E.01402
G1 X122.068 Y108.964 E.01395
G1 X122.084 Y108.519 E.01396
G1 X122.257 Y108.108 E.01398
G1 X122.54 Y107.764 E.01397
G1 X122.926 Y107.542 E.01396
G1 X123.048 Y107.513 E.00393
M204 S1000
G1 X123.228 Y107.859 F10800
M204 S800
G1 F1200
G1 X123.379 Y107.818 E.00491
G1 X123.804 Y107.888 E.01351
G1 X124.159 Y108.13 E.01347
G1 X124.381 Y108.499 E.0135
G1 X124.427 Y108.818 E.01011
G1 X124.38 Y109.138 E.01014
G1 X124.158 Y109.506 E.01348
G1 X123.801 Y109.747 E.01351
G1 X123.376 Y109.816 E.0135
G1 X122.96 Y109.7 E.01354
G1 X122.634 Y109.422 E.01343
G1 X122.454 Y109.031 E.0135
G1 X122.455 Y108.601 E.01348
G1 X122.636 Y108.21 E.01351
G1 X122.964 Y107.932 E.01348
G1 X123.17 Y107.875 E.0067
M204 S1000
G1 X123.333 Y108.207 F10800
M204 S800
G1 F1200
G1 X123.598 Y108.222 E.00832
G1 X123.833 Y108.347 E.00835
G1 X123.993 Y108.558 E.0083
G1 X124.05 Y108.818 E.00835
G1 X124.035 Y108.951 E.0042
G1 X123.924 Y109.192 E.00832
G1 X123.721 Y109.363 E.00832
G1 X123.465 Y109.434 E.00833
G1 X123.212 Y109.394 E.00803
G1 X122.984 Y109.243 E.00857
G1 X122.846 Y109.014 E.00838
G1 X122.818 Y108.75 E.00832
G1 X122.903 Y108.498 E.00834
G1 X123.086 Y108.305 E.00834
G1 X123.277 Y108.229 E.00645
M204 S1000
G1 X123.444 Y108.603 F10800
M204 S800
;WIDTH:0.471896
G1 F1200
G1 X123.589 Y108.669 E.00568
G1 X123.647 Y108.817 E.00567
G1 X123.571 Y108.981 E.00645
G1 X123.419 Y109.033 E.00573
G1 X123.26 Y108.948 E.00643
G1 X123.218 Y108.794 E.00569
G1 X123.292 Y108.652 E.00571
G1 X123.387 Y108.621 E.00356
M204 S1000
; stop printing object Material Selector - Part 6.stl id:2 copy 0
; printing object Material Selector - Part 6.stl id:4 copy 0
;WIPE_START
G1 F8640
G1 X123.444 Y108.603 E-.0138
G1 X123.589 Y108.669 E-.03679
G1 X123.647 Y108.817 E-.0367
G1 X123.571 Y108.981 E-.04174
G1 X123.419 Y109.033 E-.03709
G1 X123.26 Y108.948 E-.04163
G1 X123.218 Y108.794 E-.03686
G1 X123.292 Y108.652 E-.03697
G1 X123.387 Y108.621 E-.02307
;WIPE_END
G1 E-.49535 F2100
G1 Z.6 F720
G1 X130.838 Y109.811 F10800
G1 Z.2 F720
G1 E.8 F2100
M204 S800
;TYPE:External perimeter
;WIDTH:0.419999
G1 F1200
G1 X131.217 Y109.749 E.01204
G1 X131.679 Y109.775 E.01451
G1 X132.124 Y109.899 E.01448
G1 X132.532 Y110.116 E.01449
G1 X132.885 Y110.416 E.01453
G1 X133.164 Y110.784 E.01448
G1 X133.358 Y111.204 E.01451
G1 X133.407 Y111.43 E.00725
G1 X133.456 Y111.887 E.01441
G1 X133.456 Y112.118 E.00724
G1 X133.356 Y112.57 E.01451
G1 X133.161 Y112.99 E.01452
G1 X132.881 Y113.357 E.01447
G1 X132.528 Y113.656 E.0145
G1 X132.119 Y113.873 E.01452
G1 X131.674 Y113.996 E.01448
G1 X131.212 Y114.02 E.01451
G1 X130.765 Y113.947 E.0142
G1 X130.326 Y113.773 E.01481
