; generated by PrusaSlicer 2.7.1+win64 on 2024-02-29 at 17:18:41 UTC


;
;
; 

; external perimeters extrusion width = 0.45mm
; perimeters extrusion width = 0.45mm
; infill extrusion width = 0.45mm
; solid infill extrusion width = 0.45mm
; top infill extrusion width = 0.40mm
; support material extrusion width = 0.35mm
; first layer extrusion width = 0.45mm

M73 P0 R5
M73 Q0 S5
M201 X1000 Y1000 Z200 E5000 ; sets maximum accelerations, mm/sec^2
M203 X200 Y200 Z12 E120 ; sets maximum feedrates, mm / sec
M204 S1250 T1250 ; sets acceleration (S) and retract acceleration (R), mm/sec^2
M205 X8.00 Y8.00 Z0.40 E4.50 ; sets the jerk limits, mm/sec
M205 S0 T0 ; sets the minimum extruding and travel feed rate, mm/sec

; printing object Material Selector - Part 6.stl id:0 copy 0
; stop printing object Material Selector - Part 6.stl id:0 copy 0

;TYPE:Custom
M862.3 P "MK3S" ; printer model check
M862.1 P0.4 ; nozzle diameter check
M115 U3.13.2 ; tell printer latest fw version
G90 ; use absolute coordinates
M83 ; extruder relative mode
M104 S215 ; set extruder temp
M140 S65 ; set bed temp
M190 S65 ; wait for bed temp
M109 S215 ; wait for extruder temp
G28 W ; home all without mesh bed level
G80 X115.08 Y95.0801 W19.8398 H19.8407 ; mesh bed levelling

G1 Z0.2 F720
G1 Y-3 F1000 ; go outside print area
G92 E0
G1 X60 E9 F1000 ; intro line
G1 X100 E12.5 F1000 ; intro line
M73 P1 R5
M73 Q1 S5

G92 E0
M221 S95

; Don't change E values below. Excessive value can damage the printer.

M907 E538 ; set extruder motor current
G21 ; set units to millimeters
G90 ; use absolute coordinates
M83 ; use relative distances for extrusion
M900 K0.05 ; Filament gcode LA 1.5
M900 K30 ; Filament gcode LA 1.0
M107
;LAYER_CHANGE
;Z:0.2
;HEIGHT:0.2
;BEFORE_LAYER_CHANGE
G92 E0.0
;0.2


G1 E-.8 F2100
G1 Z.2 F720
;AFTER_LAYER_CHANGE
;0.2
G1 X116.322 Y102.042 F10800
G1 Z.2 F720
M73 P2 R5
M73 Q2 S5
G1 E.8 F2100
M204 S800
;TYPE:Skirt/Brim
;WIDTH:0.45
G1 F1200
G1 X121.702 Y96.622 E.2585
G1 X122.449 Y96.029 E.03228
G1 X123.333 Y95.585 E.03348
G1 X124.296 Y95.333 E.03369
G1 X125.316 Y95.291 E.03456
G1 X126.649 Y95.578 E.04615
G1 X127.232 Y95.842 E.02166
G1 X127.957 Y96.322 E.02943
G1 X133.378 Y101.702 E.25852
G1 X133.962 Y102.435 E.03172
G1 X134.409 Y103.317 E.03347
G1 X134.664 Y104.284 E.03385
G1 X134.717 Y105.172 E.03011
G1 X134.651 Y105.801 E.02141
G1 X134.422 Y106.649 E.02973
G1 X134.171 Y107.208 E.02074
G1 X133.678 Y107.958 E.03038
G1 X128.298 Y113.378 E.2585
G1 X127.554 Y113.969 E.03216
G1 X126.667 Y114.415 E.03361
G1 X125.832 Y114.646 E.02933
G1 X124.878 Y114.717 E.03238
G1 X124.199 Y114.651 E.02309
G1 X123.351 Y114.422 E.02973
G1 X122.762 Y114.155 E.02189
G1 X122.042 Y113.678 E.02923
G1 X116.622 Y108.298 E.2585
G1 X116.033 Y107.557 E.03204
G1 X115.585 Y106.667 E.03373
G1 X115.333 Y105.704 E.03369
G1 X115.283 Y104.828 E.0297
G1 X115.354 Y104.168 E.02247
G1 X115.577 Y103.351 E.02867
G1 X115.845 Y102.762 E.0219
G1 X116.289 Y102.092 E.02721
M204 S1000
G1 X116.625 Y102.317 F10800
M204 S800
G1 F1200
G1 X116.635 Y102.303 E.00058
G1 X121.99 Y96.91 E.25725
G1 X122.674 Y96.368 E.02954
M73 P3 R5
M73 Q3 S5
G1 X123.484 Y95.963 E.03065
G1 X124.364 Y95.735 E.03077
G1 X125.294 Y95.698 E.0315
G1 X126.5 Y95.956 E.04175
G1 X127.065 Y96.214 E.02102
G1 X127.697 Y96.635 E.0257
G1 X133.09 Y101.99 E.25725
G1 X133.624 Y102.663 E.02908
G1 X134.044 Y103.5 E.0317
G1 X134.268 Y104.382 E.0308
G1 X134.31 Y105.15 E.02603
G1 X134.244 Y105.767 E.021
G1 X134.044 Y106.5 E.02572
G1 X133.787 Y107.064 E.02098
G1 X133.365 Y107.697 E.02575
G1 X128.01 Y113.09 E.25725
G1 X127.328 Y113.63 E.02945
G1 X126.516 Y114.037 E.03074
G1 X125.767 Y114.244 E.0263
G1 X124.85 Y114.31 E.03112
G1 X124.233 Y114.244 E.021
G1 X123.5 Y114.044 E.02572
G1 X122.936 Y113.787 E.02098
G1 X122.303 Y113.365 E.02575
G1 X116.91 Y108.01 E.25725
G1 X116.372 Y107.331 E.02932
G1 X115.963 Y106.516 E.03087
G1 X115.735 Y105.636 E.03077
G1 X115.69 Y104.85 E.02665
G1 X115.756 Y104.233 E.021
G1 X115.956 Y103.5 E.02572
G1 X116.213 Y102.936 E.02098
G1 X116.592 Y102.367 E.02314
M204 S1000
G1 X116.946 Y102.566 F10800
M204 S800
G1 F1200
G1 X116.948 Y102.563 E.00012
G1 X122.278 Y97.198 E.25598
G1 X122.9 Y96.707 E.02682
G1 X123.635 Y96.341 E.02779
G1 X124.431 Y96.136 E.02782
G1 X125.272 Y96.104 E.02849
G1 X126.351 Y96.335 E.03735
G1 X127.437 Y96.947 E.04219
G1 X132.802 Y102.278 E.25601
G1 X133.287 Y102.891 E.02646
M73 Q4 S5
G1 X133.665 Y103.649 E.02867
M73 P4 R5
G1 X133.865 Y104.441 E.02765
G1 X133.904 Y105.128 E.02329
G1 X133.665 Y106.351 E.04218
G1 X133.052 Y107.437 E.04221
G1 X127.722 Y112.802 E.25598
G1 X127.102 Y113.292 E.02675
G1 X126.365 Y113.659 E.02787
G1 X125.702 Y113.842 E.02328
G1 X124.872 Y113.904 E.02817
G1 X123.649 Y113.665 E.04218
G1 X122.563 Y113.052 E.04221
G1 X117.198 Y107.722 E.25598
G1 X116.71 Y107.105 E.02663
G1 X116.341 Y106.365 E.02799
G1 X116.136 Y105.569 E.02782
G1 X116.096 Y104.872 E.02363
G1 X116.335 Y103.649 E.04218
G1 X116.916 Y102.618 E.04006
M204 S1000
; printing object Material Selector - Part 6.stl id:0 copy 0
;WIPE_START
G1 F8640
G1 X116.946 Y102.566 E-.01386
G1 X116.948 Y102.563 E-.00083
G1 X119.345 Y100.15 E-.78531
;WIPE_END
G1 Z.6 F720
G1 X128.447 Y106.025 F10800
G1 Z.2 F720
G1 E.8 F2100
M204 S800
;TYPE:Perimeter
;WIDTH:0.449999
G1 F1200
G1 X128.55 Y105.602 E.01474
G1 X128.609 Y104.97 E.02149
G1 X128.55 Y104.398 E.01946
G1 X128.447 Y103.975 E.01474
G1 X128.605 Y104.15 E.00798
G1 X129.053 Y104.438 E.01803
G1 X129.505 Y104.565 E.01589
G1 X130.022 Y104.564 E.0175
G1 X130.248 Y104.646 E.00814
G1 X130.396 Y104.82 E.00773
G1 X130.43 Y105.046 E.00774
G1 X130.425 Y105.092 E.00157
G1 X130.317 Y105.294 E.00775
G1 X130.124 Y105.417 E.00775
G1 X129.604 Y105.431 E.01761
G1 X129.247 Y105.492 E.01226
G1 X128.767 Y105.722 E.01802
G1 X128.491 Y105.984 E.01288
M204 S1000
G1 E-.8 F2100
G1 X128.491 Y105.984 Z.6 F10823.973
G1 X129.117 Y105 F10800
G1 Z.2 F720
G1 E.8 F2100
M204 S800
;WIDTH:0.650968
G1 F1200
G1 X129.406 Y105 E.01461
;WIDTH:0.602714
G1 X129.695 Y105 E.01345
;WIDTH:0.55446
G1 X129.985 Y105 E.01234
M204 S1000
G1 E-.8 F2100
G1 X129.985 Y105 Z.6 F10823.973
G1 X126.173 Y101.63 F10800
G1 Z.2 F720
G1 E.8 F2100
M204 S800
;WIDTH:0.409341
G1 F1200
G1 X126.063 Y101.574 E.00376
;WIDTH:0.449999
G1 X125.591 Y101.455 E.01648
G1 X125.085 Y101.396 E.01724
G1 X124.526 Y101.426 E.01895
G1 X123.954 Y101.56 E.01989
G1 X124.212 Y101.317 E.012
G1 X124.438 Y100.947 E.01468
G1 X124.556 Y100.569 E.0134
G1 X124.565 Y100.059 E.01727
G1 X124.612 Y99.808 E.00864
G1 X124.736 Y99.657 E.00661
G1 X124.954 Y99.568 E.00797
G1 X125.178 Y99.606 E.00769
G1 X125.357 Y99.751 E.0078
G1 X125.435 Y100.059 E.01075
M73 Q5 S5
G1 X125.444 Y100.569 E.01727
G1 X125.595 Y101.027 E.01632
M73 P5 R5
G1 X125.85 Y101.395 E.01515
G1 X126.012 Y101.513 E.00678
;WIDTH:0.420619
G1 X126.125 Y101.595 E.00438
M204 S1000
G1 E-.8 F2100
G1 X126.125 Y101.595 Z.6 F10823.973
G1 X125 Y100.054 F10800
G1 Z.2 F720
G1 E.8 F2100
M204 S800
;WIDTH:0.555386
G1 F1200
G1 X125 Y100.333 E.01189
;WIDTH:0.60537
G1 X125 Y100.612 E.01305
;WIDTH:0.655354
G1 X125 Y100.89 E.01416
M204 S1000
G1 E-.8 F2100
G1 X125 Y100.89 Z.6 F10823.973
G1 X122.953 Y102.59 F10800
G1 X122.705 Y102.826
G1 X122.483 Y103.087
G1 X122.291 Y103.37
G1 X122.131 Y103.672
G1 X122.004 Y103.99
G1 X121.912 Y104.32
G1 X121.857 Y104.658
G1 X121.838 Y105
G1 X121.857 Y105.342
G1 X121.912 Y105.68
G1 X121.923 Y105.717
G1 X121.981 Y105.928
G1 X121.572 Y106.041
G1 Z.2 F720
G1 E.8 F2100
M204 S800
;WIDTH:0.449999
G1 F1200
G1 X121.395 Y105.85 E.00881
G1 X120.976 Y105.573 E.017
G1 X120.571 Y105.445 E.01438
G1 X120.059 Y105.435 E.01733
G1 X119.827 Y105.393 E.00798
G1 X119.638 Y105.237 E.0083
G1 X119.571 Y105.053 E.00663
G1 X119.604 Y104.82 E.00797
G1 X119.752 Y104.646 E.00773
G1 X119.978 Y104.564 E.00814
G1 X120.495 Y104.565 E.0175
G1 X120.976 Y104.427 E.01694
G1 X121.395 Y104.15 E.017
G1 X121.507 Y103.995 E.00647
;WIDTH:0.416364
G1 X121.618 Y103.84 E.00592
G1 X121.533 Y104.127 E.00929
;WIDTH:0.449999
G1 X121.449 Y104.413 E.01009
G1 X121.406 Y104.967 E.01881
G1 X121.43 Y105.499 E.01803
G1 X121.557 Y105.983 E.01694
M204 S1000
G1 E-.8 F2100
G1 X121.557 Y105.983 Z.6 F10823.973
G1 X120.054 Y105 F10800
G1 Z.2 F720
G1 E.8 F2100
M204 S800
;WIDTH:0.543616
G1 F1200
G1 X120.264 Y105 E.00874
;WIDTH:0.581831
G1 X120.475 Y105 E.00946
;WIDTH:0.620047
G1 X120.685 Y105 E.01008
;WIDTH:0.658262
G1 X120.895 Y105 E.01074
M204 S1000
G1 E-.8 F2100
G1 X120.895 Y105 Z.6 F10823.973
G1 X122.483 Y106.913 F10800
G1 X122.705 Y107.174
G1 X122.953 Y107.41
G1 X123.226 Y107.617
G1 X123.519 Y107.793
G1 X123.83 Y107.937
G1 X124.154 Y108.046
G1 X124.489 Y108.12
G1 X124.829 Y108.157
G1 X125.171 Y108.157
G1 X125.21 Y108.153
G1 X125.213 Y108.152
G1 X125.26 Y108.584
G1 Z.2 F720
G1 E.8 F2100
M204 S800
;WIDTH:0.449999
G1 F1200
G1 X125.591 Y108.545 E.01128
G1 X126.063 Y108.426 E.01648
;WIDTH:0.437145
G1 X125.894 Y108.562 E.00711
;WIDTH:0.449999
G1 X125.595 Y108.973 E.0172
G1 X125.444 Y109.431 E.01632
G1 X125.435 Y109.941 E.01727
G1 X125.392 Y110.173 E.00799
G1 X125.237 Y110.362 E.00827
G1 X125 Y110.435 E.00839
G1 X124.781 Y110.373 E.0077
G1 X124.619 Y110.21 E.00778
G1 X124.565 Y109.941 E.00929
G1 X124.556 Y109.431 E.01727
G1 X124.438 Y109.053 E.0134
G1 X124.278 Y108.767 E.01109
G1 X123.954 Y108.44 E.01558
G1 X124.526 Y108.574 E.01989
G1 X125.085 Y108.604 E.01895
G1 X125.2 Y108.591 E.00392
M204 S1000
G1 E-.8 F2100
G1 X125.2 Y108.591 Z.6 F10823.973
G1 X125 Y109.946 F10800
G1 Z.2 F720
G1 E.8 F2100
M204 S800
;WIDTH:0.555386
G1 F1200
G1 X125 Y109.667 E.01189
;WIDTH:0.60537
G1 X125 Y109.388 E.01305
;WIDTH:0.655354
G1 X125 Y109.11 E.01416
M204 S1000
G1 X125.167 Y108.188 F10800
M204 S800
;WIDTH:0.449999
G1 F1200
G1 X124.548 Y108.167 E.02096
;WIDTH:0.489308
G1 X124.335 Y108.133 E.00801
;WIDTH:0.528616
G1 X124.123 Y108.1 E.00866
;WIDTH:0.567924
G1 X123.911 Y108.066 E.00937
;WIDTH:0.603458
G1 X123.719 Y108.015 E.00926
G1 X123.226 Y107.748 E.02613
;WIDTH:0.600527
G1 X122.811 Y107.421 E.0245
G1 X122.575 Y107.196 E.01512
;WIDTH:0.595383
G1 X122.236 Y106.749 E.02577
;WIDTH:0.600488
G1 X122.101 Y106.504 E.01297
G1 X122.063 Y106.368 E.00655
;WIDTH:0.562866
G1 X122.025 Y106.231 E.00615
;WIDTH:0.525243
G1 X121.986 Y106.095 E.00567
;WIDTH:0.487621
G1 X121.948 Y105.959 E.00522
;WIDTH:0.449999
G1 X121.827 Y105.411 E.019
G1 X121.813 Y104.76 E.02204
G1 X121.948 Y104.041 E.02476
G1 X122.002 Y103.891 E.0054
;WIDTH:0.498672
G1 X122.054 Y103.719 E.00681
;WIDTH:0.547345
G1 X122.107 Y103.548 E.00751
;WIDTH:0.596017
G1 X122.159 Y103.377 E.00822
G1 X122.575 Y102.804 E.03256
;WIDTH:0.595795
G1 X123.098 Y102.338 E.0322
;WIDTH:0.603448
G1 X123.718 Y101.986 E.03323
G1 X123.907 Y101.921 E.00932
;WIDTH:0.595025
G1 X124.077 Y101.899 E.00787
;WIDTH:0.546683
G1 X124.247 Y101.876 E.00719
;WIDTH:0.498341
G1 X124.417 Y101.854 E.00649
;WIDTH:0.449999
G1 X125.012 Y101.808 E.0202
G1 X125.526 Y101.857 E.01748
G1 X126.033 Y101.981 E.01767
;WIDTH:0.497985
G1 X126.203 Y102.025 E.00664
M73 Q6 S5
;WIDTH:0.545971
G1 X126.372 Y102.068 E.00729
;WIDTH:0.593956
G1 X126.542 Y102.112 E.00805
G1 X127.061 Y102.46 E.02863
;WIDTH:0.600657
G1 X127.431 Y102.823 E.02404
G1 X127.648 Y103.079 E.01556
;WIDTH:0.597192
G1 X127.938 Y103.559 E.02585
;WIDTH:0.60327
G1 X128.003 Y103.692 E.0069
M73 P6 R5
G1 X128.03 Y103.831 E.0066
;WIDTH:0.564953
G1 X128.056 Y103.97 E.00614
;WIDTH:0.526635
G1 X128.083 Y104.109 E.0057
;WIDTH:0.488317
G1 X128.11 Y104.248 E.00524
;WIDTH:0.449999
G1 X128.189 Y104.843 E.02032
G1 X128.189 Y105.157 E.01063
G1 X128.124 Y105.7 E.01851
;WIDTH:0.488563
G1 X128.094 Y105.852 E.00574
;WIDTH:0.527126
G1 X128.064 Y106.004 E.00624
;WIDTH:0.565689
G1 X128.034 Y106.156 E.00673
;WIDTH:0.604252
G1 X128.004 Y106.308 E.00723
G1 X127.648 Y106.921 E.03309
;WIDTH:0.595629
G1 X127.174 Y107.445 E.03247
;WIDTH:0.596167
G1 X126.598 Y107.855 E.03252
;WIDTH:0.597509
G1 X126.467 Y107.925 E.00685
G1 X126.285 Y107.972 E.00867
;WIDTH:0.548339
G1 X126.102 Y108.018 E.00793
;WIDTH:0.499169
G1 X125.919 Y108.064 E.00716
;WIDTH:0.449999
G1 X125.239 Y108.19 E.02341
G1 X125.227 Y108.19 E.00041
M204 S1000
G1 X125.123 Y107.786 F10800
M204 S800
;TYPE:External perimeter
G1 F1200
G1 X124.57 Y107.761 E.01874
G1 X124.035 Y107.617 E.01875
G1 X123.45 Y107.325 E.02213
G1 X122.987 Y106.937 E.02045
G1 X122.617 Y106.459 E.02046
G1 X122.371 Y105.938 E.0195
G1 X122.244 Y105.412 E.01832
G1 X122.22 Y104.76 E.02208
G1 X122.371 Y104.061 E.02421
G1 X122.596 Y103.575 E.01813
G1 X122.957 Y103.095 E.02033
G1 X123.409 Y102.704 E.02023
G1 X123.945 Y102.413 E.02064
G1 X124.43 Y102.273 E.01709
G1 X125.034 Y102.214 E.02054
G1 X125.664 Y102.292 E.02149
G1 X126.289 Y102.521 E.02253
G1 X126.792 Y102.856 E.02046
G1 X127.211 Y103.292 E.02047
G1 X127.526 Y103.807 E.02043
G1 X127.724 Y104.378 E.02046
G1 X127.784 Y104.887 E.01735
G1 X127.74 Y105.514 E.02128
G1 X127.545 Y106.153 E.02261
G1 X127.237 Y106.673 E.02046
G1 X126.825 Y107.115 E.02045
G1 X126.329 Y107.458 E.02041
G1 X125.835 Y107.66 E.01807
G1 X125.183 Y107.787 E.02248
M204 S1000
G1 E-.8 F2100
G1 X125.183 Y107.787 Z.6 F10823.973
G1 X125.179 Y110.825 F10800
G1 Z.2 F720
G1 E.8 F2100
M204 S800
;TYPE:Perimeter
G1 F1200
G1 X124.821 Y110.825 E.01212
G1 X124.495 Y110.677 E.01212
G1 X124.26 Y110.407 E.01212
G1 X124.157 Y110.057 E.01235
G1 X124.154 Y109.496 E.01899
G1 X124.002 Y109.081 E.01496
;WIDTH:0.489308
G1 X123.893 Y108.937 E.0067
;WIDTH:0.528616
G1 X123.783 Y108.793 E.00732
;WIDTH:0.567924
G1 X123.674 Y108.649 E.00788
;WIDTH:0.603458
G1 X122.745 Y108.087 E.05061
;WIDTH:0.595974
G1 X122.249 Y107.652 E.03034
;WIDTH:0.600776
G1 X121.897 Y107.23 E.02549
G1 X121.604 Y106.755 E.02589
;WIDTH:0.600488
G1 X121.488 Y106.608 E.00868
;WIDTH:0.562866
G1 X121.373 Y106.462 E.00804
;WIDTH:0.525244
G1 X121.258 Y106.315 E.00749
;WIDTH:0.487622
G1 X121.143 Y106.169 E.00687
;WIDTH:0.449999
G1 X120.826 Y105.951 E.01302
G1 X120.46 Y105.841 E.01294
G1 X119.959 Y105.843 E.01696
G1 X119.596 Y105.736 E.01281
G1 X119.315 Y105.491 E.01262
G1 X119.175 Y105.179 E.01158
G1 X119.175 Y104.821 E.01212
G1 X119.323 Y104.495 E.01212
G1 X119.593 Y104.26 E.01212
G1 X119.863 Y104.172 E.00961
G1 X120.4 Y104.162 E.01818
G1 X120.809 Y104.055 E.01431
G1 X121.143 Y103.831 E.01361
G1 X121.299 Y103.646 E.00819
;WIDTH:0.487621
G1 X121.375 Y103.545 E.00467
;WIDTH:0.525243
G1 X121.451 Y103.445 E.00504
;WIDTH:0.562865
G1 X121.528 Y103.345 E.00546
;WIDTH:0.600487
G1 X121.604 Y103.245 E.00582
;WIDTH:0.600775
G1 X121.915 Y102.746 E.02727
G1 X122.304 Y102.294 E.02766
;WIDTH:0.595795
G1 X122.745 Y101.913 E.02679
;WIDTH:0.601265
G1 X123.115 Y101.676 E.0204
G1 X123.68 Y101.363 E.02999
;WIDTH:0.595025
G1 X123.805 Y101.178 E.01025
;WIDTH:0.546683
G1 X123.93 Y100.993 E.00935
;WIDTH:0.498341
G1 X124.055 Y100.809 E.00842
;WIDTH:0.449999
G1 X124.162 Y100.4 E.01431
G1 X124.182 Y99.857 E.01839
G1 X124.308 Y99.517 E.01227
G1 X124.57 Y99.273 E.01212
G1 X124.91 Y99.161 E.01212
G1 X125.266 Y99.199 E.01212
G1 X125.574 Y99.381 E.01211
G1 X125.771 Y99.66 E.01156
G1 X125.842 Y100.063 E.01385
G1 X125.87 Y100.6 E.0182
G1 X126.041 Y100.981 E.01414
G1 X126.291 Y101.259 E.01266
;WIDTH:0.499169
G1 X126.428 Y101.364 E.00655
;WIDTH:0.548339
G1 X126.566 Y101.469 E.00729
;WIDTH:0.597509
G1 X126.703 Y101.574 E.00796
G1 X126.904 Y101.684 E.01057
;WIDTH:0.596167
G1 X127.57 Y102.169 E.0379
;WIDTH:0.595628
G1 X128.117 Y102.787 E.03793
;WIDTH:0.604071
G1 X128.515 Y103.466 E.03672
G1 X128.59 Y103.548 E.00519
;WIDTH:0.565553
G1 X128.666 Y103.631 E.00489
;WIDTH:0.527035
G1 X128.741 Y103.713 E.00447
;WIDTH:0.488517
G1 X128.817 Y103.796 E.00417
;WIDTH:0.449999
G1 X129.191 Y104.055 E.0154
G1 X129.54 Y104.159 E.01233
G1 X130.057 Y104.157 E.0175
G1 X130.407 Y104.26 E.01235
G1 X130.677 Y104.495 E.01212
G1 X130.825 Y104.821 E.01212
G1 X130.835 Y105.089 E.00908
G1 X130.825 Y105.179 E.00307
G1 X130.677 Y105.505 E.01212
G1 X130.407 Y105.74 E.01212
G1 X130.137 Y105.828 E.00961
G1 X129.6 Y105.838 E.01818
G1 X129.191 Y105.945 E.01431
G1 X128.857 Y106.169 E.01361
;WIDTH:0.488563
G1 X128.772 Y106.26 E.00461
;WIDTH:0.527126
G1 X128.687 Y106.351 E.00501
;WIDTH:0.565689
G1 X128.601 Y106.441 E.00541
;WIDTH:0.604252
G1 X128.516 Y106.532 E.00581
