; generated by PrusaSlicer 2.7.1+win64 on 2024-02-29 at 17:05:41 UTC


;
;
; 

; external perimeters extrusion width = 0.45mm
; perimeters extrusion width = 0.45mm
; infill extrusion width = 0.45mm
; solid infill extrusion width = 0.45mm
; top infill extrusion width = 0.40mm
; support material extrusion width = 0.35mm
; first layer extrusion width = 0.45mm

M73 P0 R12
M73 Q0 S12
M201 X1000 Y1000 Z200 E5000 ; sets maximum accelerations, mm/sec^2
M203 X200 Y200 Z12 E120 ; sets maximum feedrates, mm / sec
M204 S1250 T1250 ; sets acceleration (S) and retract acceleration (R), mm/sec^2
M205 X8.00 Y8.00 Z0.40 E4.50 ; sets the jerk limits, mm/sec
M205 S0 T0 ; sets the minimum extruding and travel feed rate, mm/sec

; printing object Material Selector - Part 3 (3).stl id:0 copy 0
; stop printing object Material Selector - Part 3 (3).stl id:0 copy 0

;TYPE:Custom
M862.3 P "MK3S" ; printer model check
M862.1 P0.4 ; nozzle diameter check
M115 U3.13.2 ; tell printer latest fw version
G90 ; use absolute coordinates
M83 ; extruder relative mode
M104 S220 ; set extruder temp
M140 S50 ; set bed temp
M190 S50 ; wait for bed temp
M109 S220 ; wait for extruder temp
G28 W ; home all without mesh bed level
G80 X111.748 Y91.7587 W26.5036 H26.4825 ; mesh bed levelling

G1 Z0.2 F720
G1 Y-3 F1000 ; go outside print area
G92 E0
G1 X60 E9 F1000 ; intro line
G1 X100 E12.5 F1000 ; intro line

G92 E0
M221 S95

; Don't change E values below. Excessive value can damage the printer.

M907 E538 ; set extruder motor current
G21 ; set units to millimeters
G90 ; use absolute coordinates
M83 ; use relative distances for extrusion
M900 K0 ; Filament gcode
M107
;LAYER_CHANGE
;Z:0.2
;HEIGHT:0.2
;BEFORE_LAYER_CHANGE
G92 E0.0
;0.2


G1 Z.2 F720
;AFTER_LAYER_CHANGE
;0.2
G1 X114.587 Y97.13 F10800
G1 Z.2 F720
M204 S800
;TYPE:Skirt/Brim
;WIDTH:0.45
G1 F884.348
G1 X115.628 Y95.92 E.06213
G1 X116.667 Y94.958 E.05512
G1 X117.699 Y94.18 E.05031
G1 X118.919 Y93.451 E.05532
M73 Q1 S12
G1 X120.114 Y92.897 E.05127
G1 X121.475 Y92.433 E.05597
G1 X122.838 Y92.128 E.05437
G1 X124.136 Y91.979 E.05086
M73 P1 R12
G1 X125.488 Y91.962 E.05263
G1 X127.275 Y92.15 E.06994
G1 X128.526 Y92.433 E.04993
G1 X129.959 Y92.928 E.05902
G1 X131.078 Y93.449 E.04805
G1 X132.272 Y94.161 E.05411
G1 X133.325 Y94.951 E.05124
G1 X134.369 Y95.917 E.05537
G1 X135.41 Y97.126 E.0621
G1 X136.079 Y98.106 E.04619
G1 X136.92 Y99.689 E.06978
G1 X137.39 Y100.896 E.05042
G1 X137.759 Y102.25 E.05463
G1 X137.984 Y103.68 E.05635
G1 X138.049 Y105.149 E.05724
G1 X137.956 Y106.562 E.05512
G1 X137.739 Y107.845 E.05065
G1 X137.357 Y109.203 E.05491
G1 X136.868 Y110.433 E.05152
G1 X136.162 Y111.765 E.05868
G1 X135.413 Y112.87 E.05196
G1 X134.58 Y113.861 E.05039
G1 X133.61 Y114.803 E.05263
G1 X132.186 Y115.893 E.06981
G1 X131.081 Y116.549 E.05002
G1 X129.691 Y117.178 E.05939
G1 X128.525 Y117.567 E.04785
G1 X127.162 Y117.872 E.05437
G1 X125.864 Y118.021 E.05086
G1 X124.441 Y118.038 E.0554
G1 X122.859 Y117.876 E.0619
G1 X121.575 Y117.595 E.05116
G1 X120.224 Y117.147 E.05541
G1 X119.052 Y116.614 E.05012
G1 X117.514 Y115.687 E.0699
G1 X116.463 Y114.87 E.05182
G1 X115.423 Y113.864 E.05632
G1 X114.59 Y112.874 E.05036
G1 X113.797 Y111.698 E.05521
G1 X113.136 Y110.442 E.05525
G1 X112.678 Y109.299 E.04793
G1 X112.27 Y107.881 E.05744
G1 X112.046 Y106.574 E.05162
G1 X111.951 Y104.85 E.06721
G1 X112.044 Y103.438 E.05508
G1 X112.261 Y102.155 E.05065
G1 X112.643 Y100.797 E.05491
G1 X113.093 Y99.659 E.04764
G1 X113.917 Y98.113 E.06819
G1 X114.553 Y97.179 E.04399
M204 S1000
G1 X114.89 Y97.408 F10800
M204 S800
G1 F884.348
G1 X114.914 Y97.372 E.00168
G1 X115.908 Y96.215 E.05938
G1 X116.914 Y95.281 E.05344
G1 X117.924 Y94.52 E.04923
G1 X119.1 Y93.815 E.05337
G1 X120.289 Y93.265 E.051
G1 X121.574 Y92.828 E.05283
G1 X122.907 Y92.529 E.05318
G1 X124.18 Y92.384 E.04987
G1 X125.487 Y92.369 E.05088
G1 X127.185 Y92.547 E.06646
G1 X128.409 Y92.823 E.04884
G1 X129.785 Y93.297 E.05665
G1 X130.958 Y93.847 E.05043
G1 X132.046 Y94.5 E.04939
G1 X133.17 Y95.348 E.05481
G1 X134.089 Y96.212 E.0491
G1 X135.079 Y97.363 E.0591
G1 X135.742 Y98.334 E.04577
G1 X136.541 Y99.84 E.06636
G1 X136.992 Y100.989 E.04805
G1 X137.346 Y102.264 E.05151
G1 X137.569 Y103.611 E.05315
G1 X137.642 Y105.127 E.05908
G1 X137.568 Y106.397 E.04952
G1 X137.344 Y107.746 E.05323
G1 X136.973 Y109.068 E.05345
M73 Q2 S12
G1 X136.47 Y110.324 E.05267
G1 X135.85 Y111.494 E.05154
G1 X135.086 Y112.628 E.05323
M73 P2 R12
G1 X134.27 Y113.597 E.04931
G1 X133.33 Y114.508 E.05095
G1 X131.976 Y115.544 E.06636
G1 X130.9 Y116.185 E.04875
G1 X129.564 Y116.791 E.05711
G1 X128.427 Y117.172 E.04668
G1 X127.093 Y117.471 E.05322
G1 X125.82 Y117.616 E.04987
G1 X124.442 Y117.631 E.05364
G1 X122.933 Y117.475 E.05905
G1 X121.675 Y117.2 E.05013
G1 X120.355 Y116.761 E.05415
G1 X119.223 Y116.245 E.04843
G1 X117.761 Y115.363 E.06646
G1 X116.82 Y114.644 E.0461
G1 X115.733 Y113.6 E.05867
G1 X114.921 Y112.636 E.04906
G1 X114.151 Y111.497 E.05352
G1 X113.508 Y110.276 E.05372
G1 X113.06 Y109.158 E.04688
G1 X112.657 Y107.749 E.05705
G1 X112.448 Y106.509 E.04895
G1 X112.358 Y104.871 E.06386
G1 X112.432 Y103.603 E.04944
G1 X112.656 Y102.254 E.05323
G1 X113.027 Y100.932 E.05345
G1 X113.468 Y99.818 E.04664
G1 X114.261 Y98.331 E.0656
G1 X114.856 Y97.458 E.04112
M204 S1000
; printing object Material Selector - Part 3 (3).stl id:0 copy 0
G1 X125.036 Y112.202 F10800
M204 S800
;TYPE:Perimeter
G1 F884.348
G1 X125 Y112.206 E.00141
G1 X124.532 Y112.156 E.01832
G1 X124.086 Y112.008 E.01829
G1 X123.681 Y111.768 E.01833
G1 X123.337 Y111.449 E.01826
G1 X123.067 Y111.063 E.01834
G1 X122.886 Y110.629 E.0183
G1 X122.801 Y110.167 E.01829
G1 X122.81 Y109.773 E.01534
G1 X122.384 Y109.555 E.01863
G1 X121.918 Y109.254 E.02159
G1 X121.487 Y108.905 E.02159
G1 X121.095 Y108.513 E.02158
G1 X120.746 Y108.082 E.02159
G1 X120.445 Y107.616 E.02159
G1 X120.227 Y107.19 E.01863
G1 X119.833 Y107.199 E.01534
G1 X119.371 Y107.114 E.01829
G1 X118.937 Y106.933 E.0183
G1 X118.565 Y106.673 E.01767
G1 X118.372 Y106.486 E.01046
G1 X118.101 Y106.123 E.01763
G1 X117.914 Y105.71 E.01765
G1 X117.843 Y105.451 E.01045
G1 X117.794 Y105 E.01766
G1 X117.844 Y104.532 E.01832
G1 X117.987 Y104.102 E.01764
G1 X118.112 Y103.864 E.01046
G1 X118.372 Y103.514 E.01697
G1 X118.565 Y103.327 E.01046
G1 X118.937 Y103.067 E.01767
G1 X119.371 Y102.886 E.0183
G1 X119.833 Y102.801 E.01829
G1 X120.227 Y102.81 E.01534
G1 X120.445 Y102.384 E.01863
G1 X120.746 Y101.918 E.02159
G1 X121.095 Y101.487 E.02159
G1 X121.487 Y101.095 E.02158
G1 X121.918 Y100.746 E.02159
G1 X122.384 Y100.445 E.02159
G1 X122.81 Y100.227 E.01863
G1 X122.801 Y99.833 E.01534
G1 X122.886 Y99.371 E.01829
G1 X123.067 Y98.937 E.0183
G1 X123.337 Y98.552 E.0183
G1 X123.681 Y98.232 E.01829
G1 X124.086 Y97.992 E.01833
G1 X124.532 Y97.844 E.01829
G1 X124.978 Y97.796 E.01746
G1 X125.251 Y97.81 E.01064
G1 X125.695 Y97.907 E.01769
G1 X126.123 Y98.101 E.01829
G1 X126.5 Y98.382 E.0183
G1 X126.808 Y98.737 E.01829
G1 X127.024 Y99.129 E.01742
G1 X127.117 Y99.387 E.01068
G1 X127.199 Y99.833 E.01765
G1 X127.19 Y100.227 E.01534
G1 X127.616 Y100.445 E.01863
G1 X128.082 Y100.746 E.02159
G1 X128.513 Y101.095 E.02159
G1 X128.905 Y101.487 E.02158
G1 X129.254 Y101.918 E.02159
G1 X129.555 Y102.384 E.02159
G1 X129.773 Y102.81 E.01863
G1 X130.167 Y102.801 E.01534
G1 X130.629 Y102.886 E.01829
G1 X131.063 Y103.067 E.0183
G1 X131.448 Y103.337 E.0183
G1 X131.768 Y103.681 E.01829
G1 X132.008 Y104.086 E.01833
G1 X132.156 Y104.532 E.01829
G1 X132.206 Y105 E.01832
G1 X132.158 Y105.445 E.01742
G1 X132.087 Y105.709 E.01064
G1 X131.899 Y106.123 E.0177
G1 X131.618 Y106.499 E.01827
G1 X131.28 Y106.794 E.01746
G1 X131.048 Y106.939 E.01065
G1 X130.629 Y107.114 E.01768
G1 X130.167 Y107.199 E.01829
G1 X129.773 Y107.19 E.01534
G1 X129.555 Y107.616 E.01863
G1 X129.254 Y108.082 E.02159
G1 X128.905 Y108.513 E.02159
G1 X128.513 Y108.905 E.02158
G1 X128.082 Y109.254 E.02159
G1 X127.616 Y109.555 E.02159
G1 X127.19 Y109.773 E.01863
G1 X127.199 Y110.167 E.01534
G1 X127.114 Y110.629 E.01829
G1 X126.933 Y111.063 E.0183
G1 X126.663 Y111.448 E.0183
G1 X126.319 Y111.768 E.01829
G1 X125.914 Y112.008 E.01833
G1 X125.468 Y112.156 E.01829
G1 X125.096 Y112.195 E.01456
M204 S1000
G1 X124.998 Y111.796 F10800
M204 S800
;TYPE:External perimeter
G1 F884.348
G1 X124.619 Y111.755 E.01484
G1 X124.256 Y111.635 E.01488
G1 X123.926 Y111.44 E.01492
G1 X123.645 Y111.18 E.0149
G1 X123.426 Y110.866 E.0149
G1 X123.278 Y110.512 E.01494
G1 X123.209 Y110.136 E.01488
G1 X123.206 Y109.625 E.01989
G1 X123.144 Y109.513 E.00498
G1 X123.014 Y109.418 E.00627
G1 X122.587 Y109.202 E.01863
G1 X122.157 Y108.924 E.01993
G1 X121.759 Y108.602 E.01993
G1 X121.398 Y108.241 E.01987
G1 X121.076 Y107.843 E.01993
G1 X120.798 Y107.413 E.01993
G1 X120.582 Y106.986 E.01863
G1 X120.487 Y106.856 E.00627
G1 X120.375 Y106.794 E.00498
G1 X119.864 Y106.791 E.01989
G1 X119.488 Y106.722 E.01488
G1 X119.134 Y106.574 E.01494
G1 X118.825 Y106.358 E.01468
G1 X118.679 Y106.216 E.00793
G1 X118.454 Y105.914 E.01466
G1 X118.298 Y105.571 E.01467
G1 X118.244 Y105.375 E.00791
G1 X118.204 Y105 E.01468
G1 X118.245 Y104.619 E.01492
G1 X118.363 Y104.262 E.01464
G1 X118.457 Y104.081 E.00794
G1 X118.679 Y103.784 E.01443
G1 X118.825 Y103.642 E.00793
G1 X119.134 Y103.426 E.01468
G1 X119.488 Y103.278 E.01494
G1 X119.864 Y103.209 E.01488
G1 X120.375 Y103.206 E.01989
G1 X120.487 Y103.144 E.00498
G1 X120.582 Y103.014 E.00627
G1 X120.798 Y102.587 E.01863
G1 X121.076 Y102.157 E.01993
G1 X121.398 Y101.759 E.01993
G1 X121.759 Y101.398 E.01987
G1 X122.157 Y101.076 E.01993
G1 X122.587 Y100.798 E.01993
G1 X123.014 Y100.582 E.01863
G1 X123.144 Y100.487 E.00627
M73 Q3 S12
G1 X123.206 Y100.375 E.00498
G1 X123.209 Y99.864 E.01989
G1 X123.278 Y99.488 E.01488
G1 X123.426 Y99.134 E.01494
G1 X123.645 Y98.82 E.0149
G1 X123.926 Y98.56 E.0149
G1 X124.256 Y98.365 E.01492
G1 X124.619 Y98.245 E.01488
G1 X124.989 Y98.205 E.01449
M73 P3 R12
G1 X125.197 Y98.215 E.00811
G1 X125.566 Y98.295 E.0147
G1 X125.914 Y98.454 E.01489
G1 X126.221 Y98.683 E.01491
G1 X126.473 Y98.971 E.0149
G1 X126.652 Y99.297 E.01448
G1 X126.723 Y99.493 E.00811
G1 X126.791 Y99.864 E.01468
G1 X126.794 Y100.375 E.01989
G1 X126.856 Y100.487 E.00498
G1 X126.986 Y100.582 E.00627
G1 X127.413 Y100.798 E.01863
G1 X127.843 Y101.076 E.01993
G1 X128.241 Y101.398 E.01993
G1 X128.602 Y101.759 E.01987
G1 X128.924 Y102.157 E.01993
G1 X129.202 Y102.587 E.01993
G1 X129.418 Y103.014 E.01863
G1 X129.513 Y103.144 E.00627
G1 X129.625 Y103.206 E.00498
G1 X130.136 Y103.209 E.01989
G1 X130.512 Y103.278 E.01488
G1 X130.866 Y103.426 E.01494
G1 X131.18 Y103.645 E.0149
G1 X131.44 Y103.926 E.0149
G1 X131.635 Y104.256 E.01492
G1 X131.755 Y104.619 E.01488
G1 X131.796 Y105 E.01492
G1 X131.757 Y105.37 E.01448
G1 X131.703 Y105.571 E.0081
G1 X131.546 Y105.914 E.01468
G1 X131.317 Y106.221 E.01491
G1 X131.037 Y106.466 E.01448
G1 X130.86 Y106.576 E.00811
G1 X130.512 Y106.722 E.01469
G1 X130.136 Y106.791 E.01488
G1 X129.625 Y106.794 E.01989
G1 X129.513 Y106.856 E.00498
G1 X129.418 Y106.986 E.00627
G1 X129.202 Y107.413 E.01863
G1 X128.924 Y107.843 E.01993
G1 X128.602 Y108.241 E.01993
G1 X128.241 Y108.602 E.01987
G1 X127.843 Y108.924 E.01993
G1 X127.413 Y109.202 E.01993
G1 X126.986 Y109.418 E.01863
G1 X126.856 Y109.513 E.00627
G1 X126.794 Y109.625 E.00498
G1 X126.791 Y110.136 E.01989
G1 X126.722 Y110.512 E.01488
G1 X126.574 Y110.866 E.01494
G1 X126.355 Y111.18 E.0149
G1 X126.074 Y111.44 E.0149
G1 X125.744 Y111.635 E.01492
G1 X125.381 Y111.755 E.01488
G1 X125.058 Y111.79 E.01265
M204 S1000
G1 X124.66 Y111.755 F10800
G1 X124.437 Y114.567
M204 S800
;TYPE:Perimeter
G1 F884.348
G1 X123.449 Y114.459 E.03869
G1 X122.436 Y114.236 E.04038
G1 X121.452 Y113.905 E.04041
G1 X120.539 Y113.483 E.03915
G1 X119.586 Y112.908 E.04333
G1 X118.793 Y112.304 E.0388
G1 X118.037 Y111.588 E.04053
G1 X117.369 Y110.801 E.04018
G1 X116.786 Y109.941 E.04044
G1 X116.3 Y109.025 E.04036
G1 X115.916 Y108.061 E.04039
G1 X115.638 Y107.06 E.04044
G1 X115.471 Y106.037 E.04035
G1 X115.415 Y105.001 E.04039
G1 X115.467 Y104.02 E.03824
G1 X115.645 Y102.914 E.04361
G1 X115.916 Y101.94 E.03935
G1 X116.318 Y100.94 E.04195
G1 X116.786 Y100.059 E.03883
G1 X117.369 Y99.199 E.04044
G1 X118.041 Y98.408 E.0404
G1 X118.795 Y97.694 E.04042
G1 X119.621 Y97.066 E.04039
G1 X120.51 Y96.531 E.04039
G1 X121.452 Y96.095 E.04041
G1 X122.406 Y95.773 E.03919
G1 X123.498 Y95.535 E.04351
G1 X124.483 Y95.429 E.03856
G1 X125.519 Y95.429 E.04033
G1 X126.551 Y95.541 E.04041
G1 X127.564 Y95.764 E.04038
G1 X128.548 Y96.095 E.04041
G1 X129.462 Y96.517 E.03919
G1 X130.414 Y97.092 E.04329
G1 X131.207 Y97.696 E.0388
G1 X131.963 Y98.412 E.04053
G1 X132.631 Y99.199 E.04018
G1 X133.214 Y100.059 E.04044
G1 X133.7 Y100.975 E.04036
G1 X134.084 Y101.939 E.04039
G1 X134.362 Y102.94 E.04044
G1 X134.529 Y103.963 E.04035
G1 X134.585 Y104.999 E.04039
G1 X134.533 Y105.98 E.03824
G1 X134.355 Y107.086 E.04361
G1 X134.084 Y108.06 E.03935
G1 X133.682 Y109.06 E.04195
G1 X133.214 Y109.941 E.03883
G1 X132.631 Y110.801 E.04044
G1 X131.959 Y111.592 E.0404
G1 X131.205 Y112.306 E.04042
G1 X130.379 Y112.934 E.04039
G1 X129.49 Y113.469 E.04039
G1 X128.548 Y113.905 E.04041
G1 X127.594 Y114.227 E.03919
G1 X126.502 Y114.465 E.04351
G1 X125.517 Y114.571 E.03856
G1 X124.496 Y114.571 E.03974
M204 S1000
G1 X124.393 Y114.971 F10800
M204 S800
;TYPE:External perimeter
G1 F884.348
G1 X123.383 Y114.861 E.03955
G1 X122.326 Y114.629 E.04212
G1 X121.301 Y114.283 E.04211
G1 X120.347 Y113.843 E.04089
G1 X119.357 Y113.245 E.04502
G1 X118.529 Y112.615 E.0405
G1 X117.741 Y111.868 E.04227
G1 X117.044 Y111.047 E.04192
G1 X116.437 Y110.151 E.04213
G1 X115.93 Y109.196 E.04209
G1 X115.53 Y108.191 E.04211
G1 X115.24 Y107.147 E.04218
G1 X115.065 Y106.081 E.04205
G1 X115.007 Y105.001 E.0421
G1 X115.062 Y103.977 E.03992
G1 X115.246 Y102.827 E.04533
G1 X115.53 Y101.81 E.0411
G1 X115.949 Y100.768 E.04372
G1 X116.437 Y99.849 E.0405
G1 X117.044 Y98.953 E.04213
G1 X117.745 Y98.128 E.04214
G1 X118.531 Y97.383 E.04216
G1 X119.392 Y96.729 E.04209
G1 X120.319 Y96.171 E.04212
G1 X121.301 Y95.717 E.04211
M73 Q4 S12
G1 X122.297 Y95.38 E.04093
G1 X123.433 Y95.132 E.04526
M73 P4 R12
G1 X124.461 Y95.021 E.04025
G1 X125.541 Y95.022 E.04204
G1 X126.617 Y95.139 E.04213
G1 X127.674 Y95.371 E.04212
G1 X128.699 Y95.717 E.04211
G1 X129.653 Y96.157 E.04089
G1 X130.643 Y96.755 E.04502
G1 X131.471 Y97.385 E.0405
G1 X132.259 Y98.132 E.04227
G1 X132.956 Y98.953 E.04192
G1 X133.563 Y99.849 E.04213
G1 X134.07 Y100.804 E.04209
G1 X134.47 Y101.809 E.04211
G1 X134.76 Y102.853 E.04218
G1 X134.935 Y103.919 E.04205
G1 X134.993 Y104.999 E.0421
G1 X134.938 Y106.023 E.03992
G1 X134.754 Y107.173 E.04533
G1 X134.47 Y108.19 E.0411
G1 X134.051 Y109.232 E.04372
G1 X133.563 Y110.151 E.0405
G1 X132.956 Y111.047 E.04213
G1 X132.255 Y111.872 E.04214
G1 X131.469 Y112.617 E.04216
G1 X130.608 Y113.271 E.04209
G1 X129.681 Y113.829 E.04212
G1 X128.699 Y114.283 E.04211
G1 X127.703 Y114.62 E.04093
G1 X126.567 Y114.868 E.04526
G1 X125.539 Y114.979 E.04025
G1 X124.459 Y114.978 E.04204
G1 X124.452 Y114.978 E.00027
M204 S1000
G1 X124.055 Y114.935 F10800
G1 X124.242 Y114.587
G1 X134.525 Y103.678
G1 X133.063 Y99.762
G1 X132.975 Y99.632
G1 X132.789 Y99.758
M204 S800
;TYPE:Solid infill
;WIDTH:0.45243
G1 F879.099
G1 X131.668 Y98.638 E.06205
G1 X130.969 Y97.975 E.03773
G1 X130.208 Y97.395 E.03747
G1 X129.297 Y96.845 E.04167
G1 X133.125 Y100.674 E.21202
G1 X133.367 Y101.129 E.02018
G1 X133.608 Y101.736 E.02557
G1 X128.256 Y96.383 E.29641
G1 X127.395 Y96.102 E.03547
G1 X133.884 Y102.591 E.35935
G1 X134.003 Y103.019 E.0174
G1 X134.056 Y103.342 E.01282
G1 X126.652 Y95.938 E.41002
G1 X126.492 Y95.903 E.00641
M73 P4 R11
G1 X125.982 Y95.848 E.02009
G1 X134.166 Y104.031 E.45319
G1 X134.199 Y104.644 E.02404
G1 X125.351 Y95.795 E.49002
G1 X124.771 Y95.795 E.02271
G1 X134.206 Y105.23 E.5225
G1 X134.177 Y105.779 E.02153
M73 P5 R11
M73 Q5 S12
G1 X124.223 Y95.825 E.55124
G1 X123.7 Y95.882 E.0206
G1 X125.262 Y97.444 E.0865
G1 X124.967 Y97.429 E.01157
G1 X124.697 Y97.458 E.01063
G1 X123.211 Y95.972 E.08229
