; generated by PrusaSlicer 2.7.2+win64 on 2024-03-03 at 03:20:37 UTC


;
;
; 

; external perimeters extrusion width = 0.45mm
; perimeters extrusion width = 0.45mm
; infill extrusion width = 0.45mm
; solid infill extrusion width = 0.45mm
; top infill extrusion width = 0.40mm
; support material extrusion width = 0.35mm
; first layer extrusion width = 0.45mm

M73 P0 R3
M73 Q0 S3
M201 X1000 Y1000 Z200 E5000 ; sets maximum accelerations, mm/sec^2
M203 X200 Y200 Z12 E120 ; sets maximum feedrates, mm / sec
M204 S1250 T1250 ; sets acceleration (S) and retract acceleration (R), mm/sec^2
M205 X8.00 Y8.00 Z0.40 E4.50 ; sets the jerk limits, mm/sec
M205 S0 T0 ; sets the minimum extruding and travel feed rate, mm/sec

; printing object Part Studio 3 - Part 6.stl id:0 copy 0
; stop printing object Part Studio 3 - Part 6.stl id:0 copy 0

;TYPE:Custom
M862.3 P "MK3S" ; printer model check
M862.1 P0.4 ; nozzle diameter check
M115 U3.13.2 ; tell printer latest fw version
G90 ; use absolute coordinates
M83 ; extruder relative mode
M104 S215 ; set extruder temp
M140 S65 ; set bed temp
M190 S65 ; wait for bed temp
M109 S215 ; wait for extruder temp
G28 W ; home all without mesh bed level
G80 X116.58 Y96.5826 W16.8395 H16.8349 ; mesh bed levelling

G1 Z0.2 F720
G1 Y-3 F1000 ; go outside print area
G92 E0
G1 X60 E9 F1000 ; intro line
G1 X100 E12.5 F1000 ; intro line
M73 P1 R3
M73 Q1 S3

G92 E0
M221 S95

; Don't change E values below. Excessive value can damage the printer.

M907 E538 ; set extruder motor current
G21 ; set units to millimeters
G90 ; use absolute coordinates
M83 ; use relative distances for extrusion
M900 K0.05 ; Filament gcode LA 1.5
M900 K30 ; Filament gcode LA 1.0
M107
;LAYER_CHANGE
;Z:0.2
;HEIGHT:0.2
G1 E-.8 F2100
M73 P2 R3
M73 Q2 S3
G1 Z.6 F720
G1 X118.564 Y99.889 F10800
G1 Z.2 F720
M73 P3 R3
M73 Q3 S3
G1 E.8 F2100
M204 S800
;TYPE:Skirt/Brim
;WIDTH:0.45
G1 F1200
G1 X119.814 Y98.625 E.06017
G1 X121.285 Y97.67 E.05936
G1 X122.621 Y97.134 E.04873
G1 X124.359 Y96.807 E.05986
G1 X125.619 Y96.805 E.04265
G1 X127.345 Y97.124 E.05941
G1 X128.983 Y97.812 E.06014
G1 X130.186 Y98.625 E.04915
G1 X131.43 Y99.882 E.05986
G1 X132.38 Y101.384 E.06016
G1 X132.842 Y102.542 E.0422
G1 X133.149 Y103.938 E.04838
G1 X133.187 Y105.715 E.06016
G1 X132.987 Y106.937 E.04191
G1 X132.384 Y108.608 E.06013
G1 X131.647 Y109.834 E.04842
G1 X130.452 Y111.149 E.06014
G1 X129.01 Y112.173 E.05986
M73 Q4 S3
G1 X127.879 Y112.698 E.04221
G1 X126.157 Y113.136 E.06014
G1 X124.381 Y113.195 E.06015
M73 P4 R3
G1 X122.655 Y112.876 E.05941
G1 X121.313 Y112.345 E.04885
G1 X119.846 Y111.4 E.05907
G1 X118.915 Y110.524 E.04327
G1 X117.881 Y109.106 E.0594
G1 X117.165 Y107.479 E.06017
G1 X116.853 Y106.075 E.04868
G1 X116.813 Y104.285 E.0606
G1 X117.158 Y102.542 E.06014
G1 X117.838 Y100.973 E.05788
G1 X118.531 Y99.939 E.04213
M204 S1000
G1 X118.531 Y99.939 F10800
G1 X118.845 Y100.225
M204 S800
G1 F1200
G1 X119.828 Y99.146 E.04941
G1 X121.196 Y98.178 E.05673
G1 X122.7 Y97.537 E.05534
G1 X123.866 Y97.272 E.04047
G1 X125.575 Y97.21 E.05789
G1 X127.216 Y97.51 E.05647
G1 X128.774 Y98.162 E.05717
G1 X129.94 Y98.949 E.04762
G1 X131.12 Y100.147 E.05692
G1 X132.021 Y101.576 E.05718
G1 X132.45 Y102.651 E.03918
G1 X132.781 Y104.307 E.05716
G1 X132.781 Y105.693 E.04691
G1 X132.453 Y107.336 E.05671
M73 Q5 S3
G1 X132.024 Y108.418 E.0394
G1 X131.31 Y109.605 E.04689
G1 X130.172 Y110.854 E.05719
M73 P5 R3
G1 X128.799 Y111.825 E.05692
G1 X127.749 Y112.312 E.03918
G1 X126.113 Y112.732 E.05717
G1 X124.425 Y112.79 E.05717
G1 X122.784 Y112.49 E.05647
G1 X121.483 Y111.975 E.04736
G1 X120.092 Y111.076 E.05606
G1 X119.225 Y110.26 E.0403
G1 X118.241 Y108.914 E.05644
G1 X117.557 Y107.369 E.05719
G1 X117.254 Y106.009 E.04716
G1 X117.219 Y104.307 E.05762
G1 X117.405 Y103.172 E.03893
G1 X117.967 Y101.602 E.05644
G1 X118.69 Y100.395 E.04762
G1 X118.805 Y100.269 E.00577
M204 S1000
G1 X118.805 Y100.269 F10800
G1 X119.135 Y100.49
M204 S800
G1 F1200
G1 X119.185 Y100.416 E.00302
G1 X120.306 Y99.273 E.05419
G1 X121.417 Y98.52 E.04543
G1 X122.894 Y97.901 E.05421
G1 X124.456 Y97.616 E.05374
G1 X125.531 Y97.614 E.03639
G1 X127.106 Y97.901 E.05419
G1 X128.353 Y98.398 E.04544
G1 X129.694 Y99.273 E.0542
G1 X130.815 Y100.416 E.05419
G1 X131.665 Y101.773 E.0542
G1 X132.058 Y102.76 E.03596
M73 Q6 S3
G1 X132.346 Y104.07 E.0454
G1 X132.374 Y105.671 E.0542
G1 X132.061 Y107.227 E.05372
M73 P6 R3
G1 X131.665 Y108.227 E.03641
G1 X130.973 Y109.377 E.04543
G1 X129.892 Y110.558 E.05419
G1 X128.583 Y111.48 E.0542
G1 X127.619 Y111.926 E.03595
G1 X126.069 Y112.327 E.05419
G1 X124.469 Y112.386 E.05419
G1 X123.145 Y112.169 E.04541
G1 X121.647 Y111.602 E.05422
G1 X120.306 Y110.727 E.0542
G1 X119.211 Y109.615 E.05283
G1 X118.589 Y108.705 E.03731
G1 X117.942 Y107.24 E.05421
G1 X117.654 Y105.93 E.0454
G1 X117.626 Y104.329 E.0542
G1 X117.942 Y102.76 E.05418
G1 X118.557 Y101.355 E.05191
G1 X119.102 Y100.54 E.03319
M204 S1000
; printing object Part Studio 3 - Part 6.stl id:0 copy 0
;WIPE_START
G1 F8640
G1 X119.135 Y100.49 E-.01383
G1 X119.185 Y100.416 E-.02062
G1 X120.306 Y99.273 E-.36967
G1 X121.417 Y98.52 E-.3099
G1 X121.76 Y98.376 E-.08598
;WIPE_END
G1 Z.6 F720
G1 X124.753 Y109.336 F10800
G1 Z.2 F720
G1 E.8 F2100
M204 S800
;TYPE:Perimeter
;WIDTH:0.449999
G1 F1200
G1 X124.297 Y109.29 E.01551
G1 X123.806 Y109.178 E.01705
G1 X123.243 Y108.97 E.02032
G1 X122.644 Y108.648 E.02302
G1 X122.212 Y108.333 E.0181
G1 X121.844 Y107.989 E.01705
M73 Q7 S3
G1 X121.521 Y107.604 E.01701
G1 X121.199 Y107.097 E.02033
G1 X120.917 Y106.479 E.02299
G1 X120.763 Y105.966 E.01813
G1 X120.679 Y105.47 E.01703
G1 X120.655 Y104.967 E.01705
G1 X120.705 Y104.369 E.02031
M73 P7 R3
G1 X120.854 Y103.706 E.023
G1 X121.043 Y103.205 E.01812
G1 X121.275 Y102.759 E.01702
G1 X121.561 Y102.344 E.01706
G1 X121.963 Y101.898 E.02032
G1 X122.483 Y101.461 E.02299
G1 X122.936 Y101.176 E.01812
G1 X123.391 Y100.962 E.01702
G1 X123.869 Y100.804 E.01704
G1 X124.459 Y100.693 E.02032
G1 X125.138 Y100.659 E.02301
G1 X125.671 Y100.707 E.01811
G1 X126.163 Y100.811 E.01702
G1 X126.639 Y100.976 E.01705
G1 X127.176 Y101.244 E.02031
G1 X127.736 Y101.628 E.02298
G1 X128.132 Y101.988 E.01812
G1 X128.461 Y102.369 E.01704
G1 X128.74 Y102.788 E.01704
G1 X129.006 Y103.326 E.02031
G1 X129.237 Y104.034 E.02521
G1 X129.321 Y104.53 E.01703
G1 X129.345 Y105.032 E.01701
G1 X129.261 Y105.838 E.02743
G1 X129.128 Y106.356 E.0181
G1 X128.945 Y106.825 E.01704
G1 X128.706 Y107.268 E.01704
G1 X128.362 Y107.747 E.01996
G1 X127.885 Y108.246 E.02337
G1 X127.466 Y108.578 E.0181
G1 X127.036 Y108.841 E.01706
G1 X126.578 Y109.049 E.01703
G1 X126.004 Y109.224 E.02031
G1 X125.333 Y109.33 E.02299
G1 X124.812 Y109.34 E.01764
M204 S1000
G1 X124.812 Y109.34 F10800
G1 X124.71 Y109.742
M204 S800
;TYPE:External perimeter
G1 F1200
G1 X124.688 Y109.742 E.00074
G1 X124.178 Y109.68 E.01739
G1 X123.676 Y109.564 E.01744
G1 X123.191 Y109.394 E.0174
G1 X122.726 Y109.173 E.01743
G1 X122.288 Y108.902 E.01743
G1 X121.882 Y108.586 E.01741
G1 X121.513 Y108.228 E.0174
G1 X121.184 Y107.832 E.01743
G1 X120.9 Y107.403 E.01741
G1 X120.665 Y106.945 E.01742
G1 X120.48 Y106.466 E.01738
G1 X120.348 Y105.968 E.01744
G1 X120.27 Y105.46 E.0174
G1 X120.248 Y104.945 E.01745
G1 X120.282 Y104.432 E.0174
G1 X120.371 Y103.925 E.01742
G1 X120.514 Y103.431 E.01741
G1 X120.71 Y102.955 E.01742
G1 X120.957 Y102.504 E.01741
G1 X121.25 Y102.081 E.01742
G1 X121.588 Y101.693 E.01742
G1 X121.966 Y101.343 E.01744
G1 X122.378 Y101.037 E.01737
G1 X122.823 Y100.776 E.01746
G1 X123.292 Y100.566 E.01739
G1 X123.782 Y100.407 E.01744
G1 X124.285 Y100.302 E.01739
G1 X124.797 Y100.252 E.01741
G1 X125.312 Y100.258 E.01743
G1 X125.823 Y100.32 E.01742
G1 X126.324 Y100.436 E.01741
G1 X126.81 Y100.606 E.01743
G1 X127.274 Y100.827 E.0174
G1 X127.712 Y101.098 E.01743
G1 X128.118 Y101.414 E.01741
G1 X128.487 Y101.772 E.0174
G1 X128.816 Y102.168 E.01743
G1 X129.1 Y102.597 E.01741
G1 X129.335 Y103.054 E.01739
M73 Q8 S3
G1 X129.52 Y103.535 E.01744
G1 X129.652 Y104.032 E.01741
G1 X129.73 Y104.541 E.01743
G1 X129.752 Y105.054 E.01738
G1 X129.718 Y105.568 E.01744
G1 X129.629 Y106.075 E.01742
M73 P8 R3
G1 X129.485 Y106.569 E.01742
G1 X129.29 Y107.045 E.01741
G1 X129.043 Y107.497 E.01744
G1 X128.75 Y107.919 E.01739
G1 X128.412 Y108.307 E.01742
G1 X128.035 Y108.657 E.01741
G1 X127.621 Y108.964 E.01745
G1 X127.178 Y109.224 E.01739
G1 X126.708 Y109.434 E.01742
G1 X126.219 Y109.593 E.01741
G1 X125.715 Y109.698 E.01743
G1 X125.203 Y109.748 E.01741
G1 X124.77 Y109.743 E.01466
M204 S1000
G1 E-.8 F2100
G1 X124.77 Y109.743 Z.6 F10800
G1 X125.163 Y108.138
G1 Z.2 F720
G1 E.8 F2100
M204 S800
;TYPE:Perimeter
G1 F1200
G1 X124.556 Y108.118 E.02056
G1 X123.896 Y107.949 E.02306
G1 X123.288 Y107.643 E.02304
G1 X122.76 Y107.213 E.02305
G1 X122.336 Y106.68 E.02305
G1 X122.037 Y106.068 E.02306
G1 X121.877 Y105.406 E.02305
G1 X121.863 Y104.725 E.02306
G1 X121.995 Y104.057 E.02305
G1 X122.268 Y103.433 E.02305
G1 X122.336 Y103.32 E.00446
G1 X122.669 Y102.883 E.0186
G1 X123.178 Y102.431 E.02304
G1 X123.773 Y102.099 E.02306
G1 X124.425 Y101.904 E.02304
G1 X125.105 Y101.852 E.02308
G1 X125.779 Y101.949 E.02305
G1 X126.416 Y102.187 E.02302
G1 X126.988 Y102.558 E.02308
G1 X127.467 Y103.042 E.02305
G1 X127.83 Y103.618 E.02305
G1 X128.061 Y104.259 E.02306
G1 X128.149 Y104.934 E.02304
G1 X128.089 Y105.612 E.02304
G1 X127.885 Y106.262 E.02306
G1 X127.551 Y106.846 E.02277
G1 X127.09 Y107.356 E.02327
G1 X126.533 Y107.751 E.02311
G1 X125.906 Y108.016 E.02304
G1 X125.236 Y108.14 E.02306
G1 X125.223 Y108.14 E.00044
M204 S1000
G1 X125.223 Y108.14 F10800
G1 X125.259 Y107.723
M204 S800
;TYPE:External perimeter
G1 F1200
G1 X125.171 Y107.739 E.00303
G1 X124.578 Y107.711 E.02009
G1 X124.005 Y107.557 E.02008
G1 X123.478 Y107.283 E.02011
G1 X123.023 Y106.903 E.02007
G1 X122.66 Y106.433 E.0201
G1 X122.407 Y105.897 E.02006
G1 X122.275 Y105.319 E.02007
G1 X122.27 Y104.725 E.02011
G1 X122.393 Y104.145 E.02007
G1 X122.66 Y103.567 E.02155
G1 X122.993 Y103.129 E.01862
G1 X123.442 Y102.741 E.02009
G1 X123.964 Y102.459 E.02008
G1 X124.534 Y102.296 E.02007
M73 Q9 S3
G1 X125.127 Y102.259 E.02011
G1 X125.713 Y102.35 E.02007
G1 X126.266 Y102.565 E.02008
G1 X126.76 Y102.894 E.02009
M73 P9 R3
G1 X127.171 Y103.322 E.02009
G1 X127.481 Y103.828 E.02009
G1 X127.675 Y104.389 E.02009
G1 X127.744 Y104.978 E.02007
G1 X127.684 Y105.568 E.02007
G1 X127.5 Y106.132 E.02008
G1 X127.202 Y106.636 E.01982
G1 X126.793 Y107.077 E.02036
G1 X126.305 Y107.414 E.02007
G1 X125.755 Y107.638 E.0201
G1 X125.318 Y107.713 E.01501
M204 S1000
G1 E-.8 F2100
G1 X125.318 Y107.713 Z.6 F10800
G1 X125.359 Y108.086
G1 X125.503 Y108.071
G1 X125.832 Y107.998
G1 X126.152 Y107.891
G1 X126.458 Y107.749
G1 X126.746 Y107.575
G1 X127.014 Y107.372
G1 X127.259 Y107.14
G1 X127.477 Y106.883
G1 X127.666 Y106.604
G1 X127.824 Y106.306
G1 X127.949 Y105.994
G1 X128.039 Y105.669
G1 X128.093 Y105.336
G1 X128.112 Y105
G1 X128.093 Y104.664
G1 X128.039 Y104.331
G1 X127.949 Y104.006
G1 X127.824 Y103.694
G1 X127.666 Y103.396
G1 X127.477 Y103.117
G1 X127.259 Y102.86
G1 X127.014 Y102.628
G1 X126.746 Y102.425
G1 X126.664 Y102.375
G1 X127.026 Y101.109
G1 X126.932 Y101.313
G1 Z.2 F720
G1 E.8 F2100
M204 S800
;TYPE:Solid infill
;WIDTH:0.461155
G1 F1200
G1 X127.933 Y102.314 E.04923
G1 X128.169 Y102.591 E.01266
G1 X128.41 Y102.948 E.01498
G1 X128.612 Y103.329 E.015
G1 X128.778 Y103.75 E.01574
G1 X126.257 Y101.23 E.12396
G1 X126.065 Y101.165 E.00705
G1 X125.646 Y101.073 E.01492
G1 X125.497 Y101.061 E.0052
G1 X126.106 Y101.67 E.02995
G1 X126.649 Y101.891 E.02039
G1 X127.2 Y102.259 E.02304
G1 X127.349 Y102.385 E.00679
G1 X127.802 Y102.871 E.0231
G1 X128.194 Y103.522 E.02643
G1 X128.314 Y103.878 E.01306
G1 X129.148 Y104.712 E.04102
M204 S1000
G1 X129.148 Y104.712 F10800
G1 X128.273 Y104.429
M204 S800
G1 F1200
G1 X128.973 Y105.129 E.03443
G1 X128.957 Y105.43 E.01048
G1 X128.918 Y105.665 E.00828
G1 X128.493 Y105.24 E.0209
G1 X128.432 Y105.771 E.01859
G1 X128.807 Y106.145 E.01842
G1 X128.646 Y106.576 E.016
G1 X128.283 Y106.213 E.01785
G1 X128.194 Y106.478 E.00972
G1 X128.105 Y106.626 E.00601
G1 X128.45 Y106.971 E.01697
G1 X128.22 Y107.333 E.01492
G1 X127.883 Y106.995 E.0166
G1 X127.803 Y107.127 E.00537
G1 X127.62 Y107.324 E.00935
G1 X127.955 Y107.66 E.0165
M73 Q10 S3
G1 X127.889 Y107.737 E.00353
G1 X127.659 Y107.955 E.01102
G1 X127.333 Y107.629 E.01603
G1 X126.994 Y107.881 E.01469
G1 X127.332 Y108.219 E.01662
G1 X126.973 Y108.451 E.01486
G1 X126.633 Y108.111 E.01672
G1 X126.214 Y108.285 E.01578
G1 X126.578 Y108.649 E.0179
G1 X126.146 Y108.808 E.01601
M73 P10 R3
G1 X125.758 Y108.42 E.01908
G1 X125.247 Y108.5 E.01799
G1 X125.669 Y108.922 E.02075
G1 X125.644 Y108.928 E.00089
G1 X125.13 Y108.974 E.01795
G1 X124.441 Y108.286 E.03386
M204 S1000
G1 E-.8 F2100
G1 X124.441 Y108.286 Z.6 F10800
G1 X124.489 Y108.069
G1 X124.497 Y108.071
G1 X124.832 Y108.107
G1 X125.168 Y108.107
G1 X125.503 Y108.071
G1 X125.832 Y107.998
G1 X126.152 Y107.891
G1 X126.458 Y107.749
G1 X126.746 Y107.575
G1 X127.014 Y107.372
G1 X127.259 Y107.14
G1 X127.477 Y106.883
G1 X127.666 Y106.604
G1 X127.824 Y106.306
G1 X127.949 Y105.994
G1 X128.039 Y105.669
G1 X128.093 Y105.336
G1 X128.112 Y105
G1 X128.093 Y104.664
G1 X128.039 Y104.331
G1 X127.949 Y104.006
G1 X127.824 Y103.694
G1 X127.666 Y103.396
G1 X127.477 Y103.117
G1 X127.259 Y102.86
G1 X127.014 Y102.628
G1 X126.746 Y102.425
G1 X126.458 Y102.251
G1 X126.152 Y102.109
G1 X125.832 Y102.002
G1 X125.793 Y101.993
G1 X125.529 Y101.935
G1 X125.574 Y101.729
G1 Z.2 F720
G1 E.8 F2100
M204 S800
G1 F1200
G1 X124.87 Y101.026 E.0346
G1 X124.356 Y101.072 E.01795
G1 X124.331 Y101.078 E.00089
G1 X124.76 Y101.507 E.0211
G1 X124.43 Y101.527 E.0115
G1 X124.241 Y101.58 E.00683
G1 X123.854 Y101.192 E.01906
G1 X123.421 Y101.351 E.01604
G1 X123.778 Y101.708 E.01756
G1 X123.697 Y101.73 E.00292
G1 X123.378 Y101.9 E.01257
G1 X123.027 Y101.549 E.01726
G1 X122.668 Y101.781 E.01486
G1 X122.997 Y102.11 E.01618
G1 X122.678 Y102.382 E.01458
G1 X122.341 Y102.045 E.01657
G1 X122.11 Y102.263 E.01105
G1 X122.045 Y102.34 E.0035
G1 X122.375 Y102.671 E.01625
G1 X122.12 Y103.007 E.01467
G1 X121.78 Y102.667 E.01672
G1 X121.548 Y103.027 E.01489
G1 X121.897 Y103.375 E.01714
G1 X121.709 Y103.78 E.01553
G1 X121.351 Y103.421 E.01763
G1 X121.198 Y103.859 E.01613
G1 X121.584 Y104.245 E.01898
G1 X121.501 Y104.619 E.01332
G1 X121.5 Y104.753 E.00466
G1 X121.082 Y104.335 E.02056
G1 X121.043 Y104.57 E.00828
G1 X121.027 Y104.872 E.01052
G1 X121.733 Y105.578 E.03472
M204 S1000
G1 X121.733 Y105.578 F10800
G1 X120.852 Y105.288
M204 S800
G1 F1200
G1 X121.672 Y106.108 E.04033
G1 X121.699 Y106.209 E.00364
G1 X121.984 Y106.814 E.02326
G1 X122.382 Y107.346 E.02311
G1 X122.516 Y107.487 E.00676
G1 X123.025 Y107.913 E.02308
G1 X123.697 Y108.27 E.02646
M73 Q11 S3
G1 X123.886 Y108.322 E.00682
G1 X124.508 Y108.944 E.03059
G1 X123.935 Y108.835 E.02028
G1 X123.742 Y108.77 E.00708
G1 X121.223 Y106.25 E.12391
G1 X121.388 Y106.671 E.01573
G1 X121.59 Y107.052 E.015
G1 X121.832 Y107.409 E.015
G1 X122.068 Y107.687 E.01268
G1 X123.068 Y108.687 E.04918
M204 S1000
; stop printing object Part Studio 3 - Part 6.stl id:0 copy 0
M106 S84.15
;LAYER_CHANGE
;Z:0.4
;HEIGHT:0.2
;BEFORE_LAYER_CHANGE
G92 E0.0
;0.4


;WIPE_START
G1 F8640
M73 P11 R3
G1 X122.068 Y107.687 E-.32655
G1 X121.832 Y107.409 E-.0842
G1 X121.59 Y107.052 E-.09959
G1 X121.388 Y106.671 E-.09957
G1 X121.223 Y106.25 E-.10441
G1 X121.485 Y106.512 E-.08568
;WIPE_END
G1 Z.4 F720
;AFTER_LAYER_CHANGE
;0.4
M140 S60 ; set bed temperature
G1 Z.8
G1 X117.51 Y108.262 F10800
G1 Z.4 F720
G1 E.8 F2100
;TYPE:Skirt/Brim
;WIDTH:0.45
G1 F2097
G1 X117.165 Y107.479 E.02896
G1 X116.853 Y106.075 E.04868
G1 X116.813 Y104.285 E.0606
G1 X117.158 Y102.542 E.06014
G1 X117.838 Y100.973 E.05788
G1 X118.564 Y99.889 E.04416
G1 X119.814 Y98.625 E.06017
G1 X121.285 Y97.67 E.05936
G1 X122.621 Y97.134 E.04873
G1 X124.359 Y96.807 E.05986
G1 X125.619 Y96.805 E.04265
G1 X127.345 Y97.124 E.05941
G1 X128.983 Y97.812 E.06014
G1 X130.186 Y98.625 E.04915
G1 X131.43 Y99.882 E.05986
G1 X132.38 Y101.384 E.06016
G1 X132.842 Y102.542 E.0422
